storage/app/icons/phosphoricons/thin/asclepius-thin.svg

<svg xmlns="http://www.w3.org/2000/svg" fill="currentColor" viewBox="0 0 256 256"><path d="M212 79v1a36 36 0 0 1-36 36h-44v88h12a20 20 0 0 0 13.33-34.91 4 4 0 1 1 5.34-6A28 28 0 0 1 144 212h-12v20a4 4 0 0 1-8 0v-20H96a4 4 0 0 1 0-8h28v-88H96a20 20 0 0 0 0 40 4 4 0 0 1 0 8 28 28 0 0 1 0-56h28V24a4 4 0 0 1 8 0v84h44a28 28 0 0 0 28-28v-1a27 27 0 0 0-27-27h-17a4 4 0 0 1 0-8h17a35 35 0 0 1 35 35M56 92H32a4 4 0 0 1-4-4v-8a36 36 0 0 1 36-36h32a4 4 0 0 1 0 8h-4v4a36 36 0 0 1-36 36m28-36v-4H64a28 28 0 0 0-28 28v4h20a28 28 0 0 0 28-28"/></svg>

<svg xmlns="http://www.w3.org/2000/svg" viewBox="0 0 256 256" fill="currentColor"><path d="M212,79v1a36,36,0,0,1-36,36H132v88h12a20,20,0,0,0,13.33-34.91,4,4,0,1,1,5.34-6A28,28,0,0,1,144,212H132v20a4,4,0,0,1-8,0V212H96a4,4,0,0,1,0-8h28V116H96a20,20,0,0,0,0,40,4,4,0,0,1,0,8,28,28,0,0,1,0-56h28V24a4,4,0,0,1,8,0v84h44a28,28,0,0,0,28-28V79a27,27,0,0,0-27-27H160a4,4,0,0,1,0-8h17a35,35,0,0,1,35,35ZM56,92H32a4,4,0,0,1-4-4V80A36,36,0,0,1,64,44H96a4,4,0,0,1,0,8H92v4A36,36,0,0,1,56,92ZM84,56V52H64A28,28,0,0,0,36,80v4H56A28,28,0,0,0,84,56Z"/></svg>
